styles/noto-emoji/1f61a.svg

<svg xmlns="http://www.w3.org/2000/svg" xmlns:xlink="http://www.w3.org/1999/xlink" width="128" height="128" viewBox="0 0 128 128"><defs><path id="a" d="M64 9.81C1.87 9.81.41 79.45.41 93.23c0 13.79 28.47 24.96 63.59 24.96 35.12 0 63.59-11.17 63.59-24.96 0-13.78-1.47-83.42-63.59-83.42z"/></defs><use xlink:href="#a" overflow="visible" fill="#FCC21B"/><clipPath id="b"><use xlink:href="#a" overflow="visible"/></clipPath><g clip-path="url(#b)"><path fill="#FCC21B" d="M38.63 71.53C33.29 82.86 19.75 88.35 8.86 83.19-1.86 78.08-4.98 64.98 1.44 54.47c6.02-9.85 18.42-13.99 28.12-9.67 9.84 4.37 14.06 16.1 9.07 26.73z"/><path fill="#FCC01C" d="M37.98 71.28C32.82 82.23 19.74 87.53 9.22 82.54-1.14 77.61-4.16 64.95 2.04 54.8c5.81-9.52 17.8-13.52 27.17-9.34 9.52 4.22 13.6 15.55 8.77 25.82z"/><path fill="#FCBE1C" d="M37.34 71.03C32.36 81.59 19.73 86.72 9.57 81.9-.42 77.14-3.34 64.92 2.65 55.12c5.61-9.19 17.18-13.05 26.22-9.02 9.19 4.08 13.12 15.02 8.47 24.93z"/><path fill="#FBBB1D" d="M36.69 70.78C31.89 80.96 19.72 85.9 9.93 81.26.29 76.67-2.51 64.89 3.26 55.45c5.41-8.85 16.56-12.58 25.27-8.69 8.85 3.93 12.65 14.47 8.16 24.02z"/><path fill="#FBB91E" d="M36.04 70.53c-4.62 9.8-16.33 14.55-25.76 10.08-9.27-4.42-11.97-15.75-6.42-24.84 5.2-8.52 15.93-12.11 24.32-8.36 8.53 3.78 12.18 13.93 7.86 23.12z"/><path fill="#FBB71E" d="M35.39 70.28c-4.44 9.42-15.7 13.98-24.75 9.69C1.73 75.72-.86 64.83 4.47 56.1c5-8.19 15.31-11.63 23.37-8.04 8.19 3.63 11.7 13.39 7.55 22.22z"/><path fill="#FBB51F" d="M34.75 70.03c-4.26 9.04-15.06 13.42-23.75 9.3-8.55-4.07-11.04-14.52-5.92-22.9 4.8-7.86 14.69-11.16 22.43-7.71 7.85 3.48 11.22 12.83 7.24 21.31z"/><path fill="#FAB220" d="M34.1 69.78c-4.08 8.65-14.42 12.85-22.74 8.9C3.17 74.78.79 64.77 5.69 56.75c4.59-7.52 14.07-10.69 21.48-7.38 7.52 3.33 10.74 12.29 6.93 20.41z"/><path fill="#FAB020" d="M33.45 69.53c-3.9 8.27-13.79 12.28-21.74 8.51-7.82-3.73-10.1-13.29-5.42-20.96 4.39-7.19 13.45-10.22 20.53-7.06 7.19 3.19 10.27 11.75 6.63 19.51z"/><path fill="#FAAE21" d="M32.8 69.28C29.08 77.17 19.65 81 12.07 77.4c-7.46-3.56-9.64-12.68-5.17-20 4.19-6.86 12.83-9.75 19.58-6.73 6.86 3.04 9.8 11.21 6.32 18.61z"/><path fill="#FAAC22" d="M32.15 69.03c-3.54 7.5-12.51 11.14-19.73 7.72-7.1-3.39-9.17-12.07-4.92-19.03 3.99-6.53 12.21-9.27 18.63-6.41 6.54 2.91 9.33 10.68 6.02 17.72z"/><path fill="#F9A922" d="M31.51 68.78c-3.36 7.12-11.87 10.58-18.73 7.33-6.74-3.21-8.7-11.45-4.67-18.06 3.78-6.19 11.58-8.8 17.68-6.08 6.2 2.75 8.86 10.13 5.72 16.81z"/><path fill="#F9A723" d="M30.86 68.54c-3.18 6.74-11.24 10.01-17.72 6.94-6.38-3.05-8.24-10.85-4.42-17.1 3.58-5.86 10.96-8.33 16.74-5.75 5.86 2.6 8.37 9.58 5.4 15.91z"/><path fill="#F9A524" d="M30.21 68.29c-3 6.36-10.6 9.44-16.72 6.54-6.02-2.87-7.77-10.22-4.17-16.12 3.38-5.53 10.34-7.86 15.79-5.43 5.53 2.45 7.9 9.04 5.1 15.01z"/><path fill="#F9A324" d="M29.56 68.04c-2.82 5.98-9.96 8.88-15.71 6.15-5.66-2.7-7.3-9.61-3.92-15.15 3.17-5.2 9.72-7.39 14.84-5.1 5.2 2.29 7.43 8.49 4.79 14.1z"/><path fill="#F8A025" d="M28.92 67.79c-2.64 5.59-9.33 8.31-14.71 5.76-5.29-2.52-6.84-8.99-3.67-14.18 2.97-4.87 9.1-6.91 13.89-4.78 4.87 2.15 6.95 7.94 4.49 13.2z"/><path fill="#F89E26" d="M28.27 67.54c-2.46 5.21-8.69 7.74-13.7 5.36-4.93-2.35-6.37-8.38-3.42-13.21 2.77-4.53 8.48-6.44 12.94-4.45 4.53 2 6.48 7.4 4.18 12.3z"/><path fill="#F89C26" d="M27.62 67.29c-2.28 4.83-8.05 7.17-12.7 4.97-4.57-2.18-5.9-7.77-3.17-12.25 2.57-4.2 7.86-5.97 11.99-4.12 4.21 1.86 6.01 6.86 3.88 11.4z"/><path fill="#F89A27" d="M26.97 67.04c-2.1 4.45-7.42 6.61-11.7 4.58-4.21-2.01-5.44-7.15-2.92-11.28 2.36-3.87 7.24-5.5 11.05-3.8 3.87 1.71 5.53 6.32 3.57 10.5z"/><path fill="#F79728" d="M26.33 66.79c-1.92 4.06-6.78 6.04-10.69 4.18-3.85-1.83-4.97-6.54-2.67-10.31 2.16-3.54 6.61-5.03 10.1-3.47 3.53 1.57 5.05 5.78 3.26 9.6z"/><path fill="#F79528" d="M25.68 66.54c-1.74 3.68-6.14 5.47-9.69 3.79-3.48-1.66-4.5-5.92-2.41-9.34 1.96-3.2 5.99-4.55 9.15-3.15 3.2 1.42 4.57 5.24 2.95 8.7z"/><path fill="#F79329" d="M25.03 66.29c-1.56 3.3-5.5 4.9-8.68 3.4-3.12-1.49-4.03-5.31-2.16-8.37 1.75-2.87 5.37-4.08 8.2-2.82 2.86 1.27 4.09 4.69 2.64 7.79z"/></g><path fill="#FCC21B" d="M86.52 95.98c-11.69 4.2-24.58-1.72-28.82-13.25-4.24-11.52 1.76-24.28 13.44-28.49 11.65-4.19 24.57 1.75 28.83 13.27 4.22 11.53-1.79 24.29-13.45 28.47z"/><path fill="#FCC01C" d="M86.28 95.34c-11.33 4.07-23.82-1.67-27.94-12.85-4.11-11.16 1.71-23.53 13.03-27.62 11.3-4.06 23.81 1.7 27.95 12.86 4.1 11.19-1.74 23.55-13.04 27.61z"/><path fill="#FCBE1C" d="M86.04 94.7c-10.97 3.94-23.07-1.62-27.05-12.44-3.98-10.81 1.66-22.79 12.62-26.74 10.94-3.93 23.06 1.64 27.06 12.46 3.97 10.82-1.68 22.79-12.63 26.72z"/><path fill="#FBBB1D" d="M85.81 94.06C75.2 97.87 63.5 92.5 59.64 82.03c-3.85-10.46 1.6-22.04 12.2-25.87 10.58-3.8 22.31 1.59 26.18 12.05 3.84 10.47-1.63 22.05-12.21 25.85z"/><path fill="#FBB91E" d="M85.57 93.42c-10.25 3.68-21.56-1.51-25.29-11.63-3.72-10.1 1.55-21.3 11.79-24.99 10.22-3.67 21.55 1.54 25.29 11.64 3.72 10.12-1.56 21.31-11.79 24.98z"/><path fill="#FBB71E" d="M85.34 92.77c-9.89 3.55-20.81-1.46-24.4-11.22-3.59-9.74 1.49-20.55 11.37-24.11 9.87-3.54 20.8 1.48 24.41 11.23 3.58 9.77-1.51 20.56-11.38 24.1z"/><path fill="#FBB51F" d="M85.1 92.13c-9.53 3.42-20.05-1.4-23.52-10.81-3.46-9.4 1.44-19.81 10.97-23.24 9.51-3.42 20.04 1.43 23.52 10.83 3.45 9.4-1.46 19.81-10.97 23.22z"/><path fill="#FAB220" d="M84.87 91.49c-9.18 3.3-19.3-1.35-22.63-10.41-3.33-9.04 1.39-19.06 10.55-22.37 9.15-3.29 19.29 1.37 22.64 10.42 3.31 9.06-1.41 19.08-10.56 22.36z"/><path fill="#FAB020" d="M84.63 90.85c-8.82 3.17-18.54-1.3-21.75-10-3.2-8.69 1.33-18.32 10.14-21.49 8.79-3.16 18.54 1.32 21.76 10.01 3.18 8.7-1.36 18.33-10.15 21.48z"/><path fill="#FAAE21" d="M84.39 90.21c-8.46 3.04-17.79-1.25-20.86-9.59-3.06-8.34 1.28-17.57 9.73-20.62 8.44-3.03 17.78 1.27 20.87 9.61 3.06 8.34-1.3 17.58-9.74 20.6z"/><path fill="#FAAC22" d="M84.16 89.57c-8.1 2.91-17.03-1.19-19.98-9.19-2.93-7.98 1.22-16.83 9.32-19.75 8.08-2.9 17.03 1.21 19.98 9.2 2.93 8-1.24 16.84-9.32 19.74z"/><path fill="#F9A922" d="M83.92 88.93c-7.74 2.78-16.28-1.14-19.09-8.78-2.81-7.63 1.17-16.08 8.9-18.87 7.72-2.77 16.27 1.16 19.1 8.79 2.8 7.64-1.19 16.09-8.91 18.86z"/><path fill="#F9A723" d="M83.69 88.29c-7.38 2.65-15.53-1.09-18.21-8.37-2.67-7.28 1.11-15.34 8.49-18 7.36-2.64 15.52 1.11 18.22 8.38 2.66 7.29-1.14 15.35-8.5 17.99z"/><path fill="#F9A524" d="M83.45 87.65c-7.02 2.52-14.77-1.04-17.32-7.96-2.54-6.92 1.06-14.59 8.08-17.12 7.01-2.52 14.77 1.05 17.33 7.98 2.53 6.92-1.09 14.59-8.09 17.1z"/><path fill="#F9A324" d="M83.21 87.01c-6.67 2.39-14.02-.98-16.44-7.56-2.41-6.57 1.01-13.85 7.66-16.25 6.65-2.39 14.01 1 16.45 7.57 2.41 6.58-1.02 13.86-7.67 16.24z"/><path fill="#F8A025" d="M82.98 86.37c-6.31 2.27-13.26-.93-15.55-7.15-2.28-6.21.95-13.1 7.25-15.37 6.29-2.26 13.26.94 15.56 7.16 2.27 6.22-.97 13.1-7.26 15.36z"/><path fill="#F89E26" d="M82.74 85.73c-5.95 2.14-12.51-.88-14.67-6.74-2.15-5.86.9-12.35 6.84-14.5 5.93-2.13 12.52.89 14.68 6.75s-.92 12.36-6.85 14.49z"/><path fill="#F89C26" d="M82.51 85.09c-5.59 2.01-11.75-.82-13.79-6.34-2.02-5.51.84-11.61 6.43-13.62 5.58-2 11.76.83 13.79 6.35 2.03 5.5-.86 11.61-6.43 13.61z"/><path fill="#F89A27" d="M82.27 84.45c-5.23 1.88-11-.77-12.9-5.93-1.89-5.15.79-10.86 6.01-12.75 5.22-1.87 11 .78 12.91 5.94 1.89 5.16-.81 10.87-6.02 12.74z"/><path fill="#F79728" d="M82.03 83.81c-4.87 1.75-10.25-.72-12.02-5.52-1.76-4.8.74-10.12 5.6-11.87 4.86-1.74 10.25.73 12.02 5.53 1.78 4.79-.74 10.11-5.6 11.86z"/><path fill="#F79528" d="M81.8 83.17c-4.51 1.62-9.49-.67-11.13-5.12-1.63-4.45.68-9.37 5.19-11 4.5-1.62 9.5.67 11.14 5.12 1.63 4.45-.7 9.38-5.2 11z"/><path fill="#F79329" d="M81.56 82.53c-4.15 1.49-8.74-.61-10.25-4.71-1.5-4.09.63-8.63 4.78-10.12 4.15-1.49 8.73.62 10.25 4.72 1.5 4.09-.64 8.62-4.78 10.11z"/><path fill="#2F2F2F" d="M27.2 36.79c-.56-1.31.05-2.83 1.36-3.39s2.81.06 3.37 1.35c.08.17 1.69 3.6 6.09 4.26 4.43.65 6.81-2.21 6.84-2.24.88-1.11 2.5-1.3 3.62-.42 1.11.88 1.31 2.5.43 3.62-.16.2-3.49 4.3-9.55 4.3-.67 0-1.36-.04-2.09-.15-7.34-1.11-9.97-7.08-10.07-7.33zM52.44 52.19c-.69.44-1.56.56-2.35.54-2.04-.01-5.01-.89-6.66.62-1.33 1.24-1.67 3.5-1.2 5.17.69 2.57 3.17 2.5 5.11 3.71.5.3.69.97.53 1.49-.07.21-.2.39-.39.53-.82.52-1.98.28-2.9.28-1.03 0-1.96-.11-2.81.54-1.39 1.06-1.96 3.92-1.24 5.5.87 1.87 3.26 2.66 4.58 4.19.7.82 3.24 3.96 1.37 4.71-1.86.77-5.71.55-6.23-1.86-.6-2.77-3.09-4.85-3.98-7.56-.93-2.83-.17-5.55 1.91-7.66 1.01-1.03-.14-3.13-.25-4.36-.13-1.55.24-3.24.93-4.63 2.11-4.39 6.91-3.5 10.94-4.27.94-.18 1.7-.11 2.47.61.73.67 1.11 1.88.17 2.45zM74.19 50.89c-7.99-1.2-10.85-7.7-10.97-7.98-.58-1.38.04-2.96 1.42-3.55 1.37-.6 2.95.04 3.54 1.41.09.21 1.91 4.03 6.81 4.76 4.91.75 7.57-2.41 7.68-2.55a2.696 2.696 0 0 1 3.79-.38c1.14.92 1.34 2.61.42 3.76-.16.21-3.81 4.69-10.44 4.69-.71 0-1.46-.05-2.25-.16z"/></svg>

<?xml version="1.0" encoding="utf-8"?>
<!-- Generator: Adobe Illustrator 16.0.0, SVG Export Plug-In . SVG Version: 6.00 Build 0)  -->
<!DOCTYPE svg PUBLIC "-//W3C//DTD SVG 1.1//EN" "http://www.w3.org/Graphics/SVG/1.1/DTD/svg11.dtd">
<svg version="1.1" id="レイヤー_1" xmlns="http://www.w3.org/2000/svg" xmlns:xlink="http://www.w3.org/1999/xlink" x="0px"
	 y="0px" width="128px" height="128px" viewBox="0 0 128 128" enable-background="new 0 0 128 128" xml:space="preserve">
<g>
	<g>
		<defs>
			<path id="SVGID_1_" d="M64,9.81C1.87,9.81,0.41,79.45,0.41,93.23c0,13.79,28.47,24.96,63.59,24.96
				c35.12,0,63.59-11.17,63.59-24.96C127.59,79.45,126.12,9.81,64,9.81z"/>
		</defs>
		<use xlink:href="#SVGID_1_"  overflow="visible" fill="#FCC21B"/>
		<clipPath id="SVGID_2_">
			<use xlink:href="#SVGID_1_"  overflow="visible"/>
		</clipPath>
		<g clip-path="url(#SVGID_2_)">
			<path fill="#FCC21B" d="M38.63,71.53C33.29,82.86,19.75,88.35,8.86,83.19C-1.86,78.08-4.98,64.98,1.44,54.47
				c6.02-9.85,18.42-13.99,28.12-9.67C39.4,49.17,43.62,60.9,38.63,71.53z"/>
			<path fill="#FCC01C" d="M37.98,71.28C32.82,82.23,19.74,87.53,9.22,82.54C-1.14,77.61-4.16,64.95,2.04,54.8
				c5.81-9.52,17.8-13.52,27.17-9.34C38.73,49.68,42.81,61.01,37.98,71.28z"/>
			<path fill="#FCBE1C" d="M37.34,71.03C32.36,81.59,19.73,86.72,9.57,81.9c-9.99-4.76-12.91-16.98-6.92-26.78
				c5.61-9.19,17.18-13.05,26.22-9.02C38.06,50.18,41.99,61.12,37.34,71.03z"/>
			<path fill="#FBBB1D" d="M36.69,70.78C31.89,80.96,19.72,85.9,9.93,81.26C0.29,76.67-2.51,64.89,3.26,55.45
				c5.41-8.85,16.56-12.58,25.27-8.69C37.38,50.69,41.18,61.23,36.69,70.78z"/>
			<path fill="#FBB91E" d="M36.04,70.53c-4.62,9.8-16.33,14.55-25.76,10.08C1.01,76.19-1.69,64.86,3.86,55.77
				c5.2-8.52,15.93-12.11,24.32-8.36C36.71,51.19,40.36,61.34,36.04,70.53z"/>
			<path fill="#FBB71E" d="M35.39,70.28c-4.44,9.42-15.7,13.98-24.75,9.69C1.73,75.72-0.86,64.83,4.47,56.1
				c5-8.19,15.31-11.63,23.37-8.04C36.03,51.69,39.54,61.45,35.39,70.28z"/>
			<path fill="#FBB51F" d="M34.75,70.03C30.49,79.07,19.69,83.45,11,79.33c-8.55-4.07-11.04-14.52-5.92-22.9
				c4.8-7.86,14.69-11.16,22.43-7.71C35.36,52.2,38.73,61.55,34.75,70.03z"/>
			<path fill="#FAB220" d="M34.1,69.78c-4.08,8.65-14.42,12.85-22.74,8.9c-8.19-3.9-10.57-13.91-5.67-21.93
				c4.59-7.52,14.07-10.69,21.48-7.38C34.69,52.7,37.91,61.66,34.1,69.78z"/>
			<path fill="#FAB020" d="M33.45,69.53c-3.9,8.27-13.79,12.28-21.74,8.51c-7.82-3.73-10.1-13.29-5.42-20.96
				c4.39-7.19,13.45-10.22,20.53-7.06C34.01,53.21,37.09,61.77,33.45,69.53z"/>
			<path fill="#FAAE21" d="M32.8,69.28C29.08,77.17,19.65,81,12.07,77.4c-7.46-3.56-9.64-12.68-5.17-20
				c4.19-6.86,12.83-9.75,19.58-6.73C33.34,53.71,36.28,61.88,32.8,69.28z"/>
			<path fill="#FAAC22" d="M32.15,69.03c-3.54,7.5-12.51,11.14-19.73,7.72c-7.1-3.39-9.17-12.07-4.92-19.03
				c3.99-6.53,12.21-9.27,18.63-6.41C32.67,54.22,35.46,61.99,32.15,69.03z"/>
			<path fill="#F9A922" d="M31.51,68.78c-3.36,7.12-11.87,10.58-18.73,7.33c-6.74-3.21-8.7-11.45-4.67-18.06
				c3.78-6.19,11.58-8.8,17.68-6.08C31.99,54.72,34.65,62.1,31.51,68.78z"/>
			<path fill="#F9A723" d="M30.86,68.54c-3.18,6.74-11.24,10.01-17.72,6.94C6.76,72.43,4.9,64.63,8.72,58.38
				c3.58-5.86,10.96-8.33,16.74-5.75C31.32,55.23,33.83,62.21,30.86,68.54z"/>
			<path fill="#F9A524" d="M30.21,68.29c-3,6.36-10.6,9.44-16.72,6.54c-6.02-2.87-7.77-10.22-4.17-16.12
				c3.38-5.53,10.34-7.86,15.79-5.43C30.64,55.73,33.01,62.32,30.21,68.29z"/>
			<path fill="#F9A324" d="M29.56,68.04c-2.82,5.98-9.96,8.88-15.71,6.15c-5.66-2.7-7.3-9.61-3.92-15.15
				c3.17-5.2,9.72-7.39,14.84-5.1C29.97,56.23,32.2,62.43,29.56,68.04z"/>
			<path fill="#F8A025" d="M28.92,67.79c-2.64,5.59-9.33,8.31-14.71,5.76c-5.29-2.52-6.84-8.99-3.67-14.18
				c2.97-4.87,9.1-6.91,13.89-4.78C29.3,56.74,31.38,62.53,28.92,67.79z"/>
			<path fill="#F89E26" d="M28.27,67.54c-2.46,5.21-8.69,7.74-13.7,5.36c-4.93-2.35-6.37-8.38-3.42-13.21
				c2.77-4.53,8.48-6.44,12.94-4.45C28.62,57.24,30.57,62.64,28.27,67.54z"/>
			<path fill="#F89C26" d="M27.62,67.29c-2.28,4.83-8.05,7.17-12.7,4.97c-4.57-2.18-5.9-7.77-3.17-12.25
				c2.57-4.2,7.86-5.97,11.99-4.12C27.95,57.75,29.75,62.75,27.62,67.29z"/>
			<path fill="#F89A27" d="M26.97,67.04c-2.1,4.45-7.42,6.61-11.7,4.58c-4.21-2.01-5.44-7.15-2.92-11.28
				c2.36-3.87,7.24-5.5,11.05-3.8C27.27,58.25,28.93,62.86,26.97,67.04z"/>
			<path fill="#F79728" d="M26.33,66.79c-1.92,4.06-6.78,6.04-10.69,4.18c-3.85-1.83-4.97-6.54-2.67-10.31
				c2.16-3.54,6.61-5.03,10.1-3.47C26.6,58.76,28.12,62.97,26.33,66.79z"/>
			<path fill="#F79528" d="M25.68,66.54c-1.74,3.68-6.14,5.47-9.69,3.79c-3.48-1.66-4.5-5.92-2.41-9.34
				c1.96-3.2,5.99-4.55,9.15-3.15C25.93,59.26,27.3,63.08,25.68,66.54z"/>
			<path fill="#F79329" d="M25.03,66.29c-1.56,3.3-5.5,4.9-8.68,3.4c-3.12-1.49-4.03-5.31-2.16-8.37c1.75-2.87,5.37-4.08,8.2-2.82
				C25.25,59.77,26.48,63.19,25.03,66.29z"/>
		</g>
	</g>
	<g>
		<path fill="#FCC21B" d="M86.52,95.98c-11.69,4.2-24.58-1.72-28.82-13.25c-4.24-11.52,1.76-24.28,13.44-28.49
			c11.65-4.19,24.57,1.75,28.83,13.27C104.19,79.04,98.18,91.8,86.52,95.98z"/>
		<path fill="#FCC01C" d="M86.28,95.34c-11.33,4.07-23.82-1.67-27.94-12.85c-4.11-11.16,1.71-23.53,13.03-27.62
			c11.3-4.06,23.81,1.7,27.95,12.86C103.42,78.92,97.58,91.28,86.28,95.34z"/>
		<path fill="#FCBE1C" d="M86.04,94.7c-10.97,3.94-23.07-1.62-27.05-12.44c-3.98-10.81,1.66-22.79,12.62-26.74
			c10.94-3.93,23.06,1.64,27.06,12.46C102.64,78.8,96.99,90.77,86.04,94.7z"/>
		<path fill="#FBBB1D" d="M85.81,94.06c-10.61,3.81-22.31-1.56-26.17-12.03c-3.85-10.46,1.6-22.04,12.2-25.87
			c10.58-3.8,22.31,1.59,26.18,12.05C101.86,78.68,96.39,90.26,85.81,94.06z"/>
		<path fill="#FBB91E" d="M85.57,93.42c-10.25,3.68-21.56-1.51-25.29-11.63c-3.72-10.1,1.55-21.3,11.79-24.99
			c10.22-3.67,21.55,1.54,25.29,11.64C101.08,78.56,95.8,89.75,85.57,93.42z"/>
		<path fill="#FBB71E" d="M85.34,92.77c-9.89,3.55-20.81-1.46-24.4-11.22C57.35,71.81,62.43,61,72.31,57.44
			c9.87-3.54,20.8,1.48,24.41,11.23C100.3,78.44,95.21,89.23,85.34,92.77z"/>
		<path fill="#FBB51F" d="M85.1,92.13c-9.53,3.42-20.05-1.4-23.52-10.81c-3.46-9.4,1.44-19.81,10.97-23.24
			c9.51-3.42,20.04,1.43,23.52,10.83C99.52,78.31,94.61,88.72,85.1,92.13z"/>
		<path fill="#FAB220" d="M84.87,91.49c-9.18,3.3-19.3-1.35-22.63-10.41c-3.33-9.04,1.39-19.06,10.55-22.37
			c9.15-3.29,19.29,1.37,22.64,10.42C98.74,78.19,94.02,88.21,84.87,91.49z"/>
		<path fill="#FAB020" d="M84.63,90.85c-8.82,3.17-18.54-1.3-21.75-10c-3.2-8.69,1.33-18.32,10.14-21.49
			c8.79-3.16,18.54,1.32,21.76,10.01C97.96,78.07,93.42,87.7,84.63,90.85z"/>
		<path fill="#FAAE21" d="M84.39,90.21c-8.46,3.04-17.79-1.25-20.86-9.59c-3.06-8.34,1.28-17.57,9.73-20.62
			c8.44-3.03,17.78,1.27,20.87,9.61C97.19,77.95,92.83,87.19,84.39,90.21z"/>
		<path fill="#FAAC22" d="M84.16,89.57c-8.1,2.91-17.03-1.19-19.98-9.19c-2.93-7.98,1.22-16.83,9.32-19.75
			c8.08-2.9,17.03,1.21,19.98,9.2C96.41,77.83,92.24,86.67,84.16,89.57z"/>
		<path fill="#F9A922" d="M83.92,88.93c-7.74,2.78-16.28-1.14-19.09-8.78c-2.81-7.63,1.17-16.08,8.9-18.87
			c7.72-2.77,16.27,1.16,19.1,8.79C95.63,77.71,91.64,86.16,83.92,88.93z"/>
		<path fill="#F9A723" d="M83.69,88.29c-7.38,2.65-15.53-1.09-18.21-8.37c-2.67-7.28,1.11-15.34,8.49-18
			c7.36-2.64,15.52,1.11,18.22,8.38C94.85,77.59,91.05,85.65,83.69,88.29z"/>
		<path fill="#F9A524" d="M83.45,87.65c-7.02,2.52-14.77-1.04-17.32-7.96c-2.54-6.92,1.06-14.59,8.08-17.12
			c7.01-2.52,14.77,1.05,17.33,7.98C94.07,77.47,90.45,85.14,83.45,87.65z"/>
		<path fill="#F9A324" d="M83.21,87.01c-6.67,2.39-14.02-0.98-16.44-7.56c-2.41-6.57,1.01-13.85,7.66-16.25
			c6.65-2.39,14.01,1,16.45,7.57C93.29,77.35,89.86,84.63,83.21,87.01z"/>
		<path fill="#F8A025" d="M82.98,86.37c-6.31,2.27-13.26-0.93-15.55-7.15c-2.28-6.21,0.95-13.1,7.25-15.37
			c6.29-2.26,13.26,0.94,15.56,7.16C92.51,77.23,89.27,84.11,82.98,86.37z"/>
		<path fill="#F89E26" d="M82.74,85.73c-5.95,2.14-12.51-0.88-14.67-6.74c-2.15-5.86,0.9-12.35,6.84-14.5
			c5.93-2.13,12.52,0.89,14.68,6.75C91.75,77.1,88.67,83.6,82.74,85.73z"/>
		<path fill="#F89C26" d="M82.51,85.09c-5.59,2.01-11.75-0.82-13.79-6.34c-2.02-5.51,0.84-11.61,6.43-13.62
			c5.58-2,11.76,0.83,13.79,6.35C90.97,76.98,88.08,83.09,82.51,85.09z"/>
		<path fill="#F89A27" d="M82.27,84.45c-5.23,1.88-11-0.77-12.9-5.93c-1.89-5.15,0.79-10.86,6.01-12.75
			c5.22-1.87,11,0.78,12.91,5.94C90.18,76.87,87.48,82.58,82.27,84.45z"/>
		<path fill="#F79728" d="M82.03,83.81c-4.87,1.75-10.25-0.72-12.02-5.52c-1.76-4.8,0.74-10.12,5.6-11.87
			c4.86-1.74,10.25,0.73,12.02,5.53C89.41,76.74,86.89,82.06,82.03,83.81z"/>
		<path fill="#F79528" d="M81.8,83.17c-4.51,1.62-9.49-0.67-11.13-5.12c-1.63-4.45,0.68-9.37,5.19-11c4.5-1.62,9.5,0.67,11.14,5.12
			C88.63,76.62,86.3,81.55,81.8,83.17z"/>
		<path fill="#F79329" d="M81.56,82.53c-4.15,1.49-8.74-0.61-10.25-4.71c-1.5-4.09,0.63-8.63,4.78-10.12
			c4.15-1.49,8.73,0.62,10.25,4.72C87.84,76.51,85.7,81.04,81.56,82.53z"/>
	</g>
	<path fill="#2F2F2F" d="M27.2,36.79c-0.56-1.31,0.05-2.83,1.36-3.39c1.31-0.56,2.81,0.06,3.37,1.35c0.08,0.17,1.69,3.6,6.09,4.26
		c4.43,0.65,6.81-2.21,6.84-2.24c0.88-1.11,2.5-1.3,3.62-0.42c1.11,0.88,1.31,2.5,0.43,3.62c-0.16,0.2-3.49,4.3-9.55,4.3
		c-0.67,0-1.36-0.04-2.09-0.15C29.93,43.01,27.3,37.04,27.2,36.79z"/>
	<path fill="#2F2F2F" d="M52.44,52.19c-0.69,0.44-1.56,0.56-2.35,0.54c-2.04-0.01-5.01-0.89-6.66,0.62c-1.33,1.24-1.67,3.5-1.2,5.17
		c0.69,2.57,3.17,2.5,5.11,3.71c0.5,0.3,0.69,0.97,0.53,1.49c-0.07,0.21-0.2,0.39-0.39,0.53c-0.82,0.52-1.98,0.28-2.9,0.28
		c-1.03,0-1.96-0.11-2.81,0.54c-1.39,1.06-1.96,3.92-1.24,5.5c0.87,1.87,3.26,2.66,4.58,4.19c0.7,0.82,3.24,3.96,1.37,4.71
		c-1.86,0.77-5.71,0.55-6.23-1.86c-0.6-2.77-3.09-4.85-3.98-7.56c-0.93-2.83-0.17-5.55,1.91-7.66c1.01-1.03-0.14-3.13-0.25-4.36
		c-0.13-1.55,0.24-3.24,0.93-4.63c2.11-4.39,6.91-3.5,10.94-4.27c0.94-0.18,1.7-0.11,2.47,0.61C53,50.41,53.38,51.62,52.44,52.19z"
		/>
	<path fill="#2F2F2F" d="M74.19,50.89c-7.99-1.2-10.85-7.7-10.97-7.98c-0.58-1.38,0.04-2.96,1.42-3.55c1.37-0.6,2.95,0.04,3.54,1.41
		c0.09,0.21,1.91,4.03,6.81,4.76c4.91,0.75,7.57-2.41,7.68-2.55c0.94-1.15,2.64-1.32,3.79-0.38c1.14,0.92,1.34,2.61,0.42,3.76
		c-0.16,0.21-3.81,4.69-10.44,4.69C75.73,51.05,74.98,51,74.19,50.89z"/>
</g>
</svg>
